X: 35704
T: Saint Anne's
R: reel
M: 4/4
K: Dmajor
|:fedf {d}edcB|A/B/AFA DAFA|{c}B2 GB EBGB|A/B/AFA DAFA|
fedf {d}edcB|A/B/AFA DAFA|BGed cABc|edd/d/c d2 de:|
|:f2fg fedc|Bgg/g/f gfg/f/e|{f}edcB ABce|baa/a/^g aba=g|
f2fg fedc|Bgg/g/f gfg/f/e|{f}edcB ABcd|edd/d/c d2 de:|

